!!!ONB: MCCC : IJB0007_03 : Extracted Monophonic Melody
!!!COM: Brahms, Johannes
!!!OPR: Ballades
!!!OMV: 3
!!!SCT: Op.10
!!!ODT: 1854///
**kern
*staff1
*clefG2
*k[b-e-a-d-g-c-]
*G-:
*M6/8
=4
8.dd-
16dd
16g-
16cc-
4.gg-
=5
8.dd-
16dd
16g-
16cc-
4.gg-
=6
8.gg-
16gg
16cc
16ff-
4.ccc
=7
8.ccc
16ddd-
16gg-
16bb-
4.ggg-
=8
8.ddd-
16ddd
16bb-
16ccc-
16ff
16gg-
16dd-
16dd
16b-
16cc-
=9
8.f
16g-
16d-
16d
4.r
=10
4r
[8gg
8gg]
8gg-
8ff-
=11
4dd
[8gg
8gg]
8gg-
8ff-
=12
4dd
8ccc[
8ccc]
8ccc-
8bb--
=13
4gg
8ddd[
8ddd]
8ddd-
8ccc-
=14
4bb-
8ddd-
8r
4ggg-
=15
2.r
=16
8.a-
16b--
16d-
16g-
4.dd-
=17
8.a-
16b--
16d-
16g-
4.dd-
=18
8.dd-
16dd
16g-
16b--
4.gg-
=19
8.gg-
16gg
16cc-
16ff-
4.ccc-
=20
8.ccc-
16ccc
16ff-
16gg
4.fff-
=21
8.ddd-
16ddd
16ff
16ccc-
4.ggg
=22
8.ccc-
16ccc
16ff-
16gg
4.fff-
=23
8.ddd-
16ddd
16ff
16ccc-
4.ggg
=24
8.eee-
16fff-
16ccc-
16ccc
16gg-
16gg
16ee-
16ff-
16cc-
16cc
=25
8.a
16b-
16g-
16g
16e-
16f-
16c-
16d-
16B--
16B-
=26
4G-
[8g
8g]
8g-
8f-
=27
4d
[8g
8g]
8g-
8f-
=28
4d
8cc[
8cc]
8cc-
8b--
=29
4g
8dd[
8dd]
8dd-
8cc-
=30
4r
8dd[
4.dd]
=31
4r
8dd[
4.dd]
=32
8.ff
16gg-
16b-
16dd-
4.bb-
=33
8.gg
16aa-
16cc-
16ff
4.ddd-
=34
8.ff
16gg-
16b-
16dd-
4.bb-
=35
8.gg
16aa-
16cc-
16ff
4.ddd-
=36
8.bb--
16bb-
16ff
16gg-
16cc
16dd-
16b--
16b-
16f
16g-
=37
8.c
8.d-
4.r
=38
2.r
=39
2.r
=40
2.r
=41
2.r
=42
8.dd-
16dd
16g-
16cc-
4.gg-
=43
8.dd-
16dd
16g-
16cc-
4.gg-
=44
8.gg-
16gg
16cc
16ff-
4.ccc
=45
8.ccc
16ddd-
16gg-
16bb-
4.ggg-
=46
8.ddd-
16ddd
16bb-
16ccc-
16ff
16gg-
16dd-
16dd
16b-
16cc-
=47
8.f
16g-
16d-
16d
4.r
=48
4r
[8gg
8gg]
8gg-
8ff-
=49
4dd
[8gg
8gg]
8gg-
8ff-
=50
4dd
8ccc[
8ccc]
8ccc-
8bb--
=51
4gg
8ddd[
8ddd]
8ddd-
8ccc-
=52
4bb-
8ddd-
8r
4ggg-
=53
2.r
=54
8.a-
16b--
16d-
16g-
4.dd-
=55
8.a-
16b--
16d-
16g-
4.dd-
=56
8.dd-
16dd
16g-
16b--
4.gg-
=57
8.gg-
16gg
16cc-
16ff-
4.ccc-
=58
8.ccc-
16ccc
16ff-
16gg
4.fff-
=59
8.ddd-
16ddd
16ff
16ccc-
4.ggg
=60
8.ccc-
16ccc
16ff-
16gg
4.fff-
=61
8.ddd-
16ddd
16ff
16ccc-
4.ggg
=62
8.eee-
16fff-
16ccc-
16ccc
16gg-
16gg
16ee-
16ff-
16cc-
16cc
=63
8.a
16b-
16g-
16g
16e-
16f-
16c-
16d-
16B--
16B-
=64
4G-
[8g
8g]
8g-
8f-
=65
4d
[8g
8g]
8g-
8f-
=66
4d
8cc[
8cc]
8cc-
8b--
=67
4g
8dd[
8dd]
8dd-
8cc-
=68
4r
8dd[
4.dd]
=69
4r
8dd[
4.dd]
=70
8.ff
16gg-
16b-
16dd-
4.bb-
=71
8.gg
16aa-
16cc-
16ff
4.ddd-
=72
8.ff
16gg-
16b-
16dd-
4.bb-
=73
8.gg
16aa-
16cc-
16ff
4.ddd-
=74
8.bb--
16bb-
16ff
16gg-
16cc
16dd-
16b--
16b-
16f
16g-
=75
8.c
8.d-
4.r
=76
2.r
=77
2.r
=78
2.r
=79
2.r
=80
2.r
=81
2.r
=82
4.fff
4ggg-
8dddd-
=83
4.dddd-
4.bbb-
=84
4aaa-
8ggg-
4.aaa-[
=85
4aaa-]
8ggg-
4fff
8ddd[
=86
4.ddd]
4.eee-
=87
4eee-
8eee-
4.eee-
=88
4eee-
8eee-
4.eee-
=89
4.fff
4ggg-
8ddd-
=90
4.dddd-
4.bbb-
=91
4aaa-
8ggg-
4.aaa-[
=92
4aaa-]
8ggg-
4.aaa-[
=93
4aaa-]
8ggg-
4.aaa-[
=94
4aaa-]
8ggg-
4fff
8ddd[
=95
4.ddd]
4.eee-
=96
2.eee-[
=97
2.eee-]
=98
4.ddd-
4eee-
8fff
=99
4.fff
4.eee-
=100
4.ccc-
4ddd-
8eee-
=101
4.eee-
4.ddd-
=102
4ccc-
8bb-
4.ccc-[
=103
4ccc-]
8bb-
4.ccc-[
=104
4ccc-]
8bb-
4.aa-[
=105
4aa-]
8gg-
4.ff
=106
2.ff[
=107
2.ff]
=108
2.fff[
=109
2.fff]
=110
4.fff
4ggg-
8dddd-
=111
4.dddd-
4.bbb-
=112
4.fff
4.ggg-
=113
4.dddd-
4.bbb-
=114
4.fff
4.ggg-
=115
4.fff
4.ggg-
=116
2.fff
=117
2.fff-
=118
2.fff-
=119
2.fff-
=120
2.g
=121
2.g
=122
2.fff-
=123
2.fff-
=124
2.g
=125
2.g
=126
2.fff-
=127
2.g
=128
2.fff-
=129
2.g
=130
2.fff-[
=131
2.fff-]
=132
8.dd-
16dd
16g-
16cc-
4.gg-
=133
8.dd-
16dd
16g-
16cc-
4.gg-
=134
8.gg-
16gg
16cc
16ff-
4.ccc
=135
8.ccc
16ddd-
16gg-
16bb-
4.ggg-
=136
8.ddd-
16ddd
16bb-
16ccc-
16ff
16gg-
16dd-
16dd
16b-
16cc-
=137
8.f
16g-
16d-
16d
4.r
=138
4r
8g
8r
8g-
8f-
=139
4d
8g
8r
8g-
8f-
=140
4d
8cc
8r
8cc-
8b--
=141
4g
8dd
8r
8dd-
8cc-
=142
8r
4b-
4dd-
8gg-
=143
2.r
=144
8.a-
16b--
16d-
16g-
4.dd-
=145
8.a-
16b--
16d-
16g-
4.dd-
=146
8.dd-
16dd
16g-
16b--
4.gg-
=147
8.gg-
16gg
16cc-
16ff-
4.ccc-
=148
8.ccc-
16ccc
16ff-
16gg
4.fff-
=149
8.ccc
16ddd-
16gg-
16bb-
4.ggg-
=150
8.ccc-
16ccc
16ff-
16gg
4.fff-
=151
8.ccc
16ddd-
16gg-
16bb-
4.ggg-
=152
8.ddd
16eee-
16bb-
16ccc-
16ff
16gg-
16dd
16ee-
16b-
16cc-
=153
8.f
16g-
16d
16e-
4.r
=154
2.b-
=155
2.cc-
=156
[2.g-
=157
2.g-]
=158
2.r
=159
2.r
=160
2.gg-
=161
4.bb-[
4bb-]
8ggg-
=162
[2.ggg-
=163
2.ggg-]
==
*-
